images/logo.svg

<svg width="199" height="45" viewBox="0 0 199 45" fill="none" xmlns="http://www.w3.org/2000/svg">
<path d="M38.1865 7.31364C29.35 7.31364 22.1865 14.4771 22.1865 23.3136C31.0231 23.3136 38.1865 16.1502 38.1865 7.31364Z" fill="#FF6E40"/>
<path d="M38.1865 37.3156C29.35 37.3156 22.1865 30.1522 22.1865 21.3156C31.0231 21.3156 38.1865 28.479 38.1865 37.3156Z" fill="#FF6E40"/>
<path d="M22.1865 23.3156C13.35 23.3156 6.18652 16.1522 6.18652 7.3156C15.0231 7.3156 22.1865 14.479 22.1865 23.3156Z" fill="#FF6E40"/>
<path d="M22.1865 21.3136C13.35 21.3136 6.18652 28.4771 6.18652 37.3136C15.0231 37.3136 22.1865 30.1502 22.1865 21.3136Z" fill="#FF6E40"/>
<path d="M43.8128 22.6289C37.5644 16.3806 27.4337 16.3806 21.1852 22.6289C27.4337 28.8773 37.5644 28.8773 43.8128 22.6289Z" fill="#FF6E40"/>
<path d="M43.8128 22.6289C37.5644 16.3806 27.4337 16.3806 21.1852 22.6289C27.4337 28.8773 37.5644 28.8773 43.8128 22.6289Z" fill="#FF6E40"/>
<path d="M23.8141 22.6292C17.5656 16.3809 7.43495 16.3809 1.18652 22.6292C7.43495 28.8776 17.5656 28.8776 23.8141 22.6292Z" fill="#FF6E40"/>
<path d="M22.5003 22.6273C16.2519 16.3789 16.2519 6.24835 22.5003 0C28.7487 6.24835 28.7487 16.3789 22.5003 22.6273Z" fill="#FF6E40"/>
<path d="M22.5003 22.002C16.2519 28.2503 16.2519 38.3809 22.5003 44.6292C28.7487 38.3809 28.7487 28.2503 22.5003 22.002Z" fill="#FF6E40"/>
<path d="M67.568 16.14C68.2613 16.14 68.8747 16.2413 69.408 16.444C69.952 16.6467 70.464 16.9507 70.944 17.356L69.696 18.844C69.3653 18.588 69.04 18.396 68.72 18.268C68.4 18.14 68.0587 18.076 67.696 18.076C66.9493 18.076 66.3573 18.3907 65.92 19.02C65.4933 19.6493 65.28 20.62 65.28 21.932C65.28 23.2227 65.4933 24.1827 65.92 24.812C66.3573 25.4307 66.96 25.74 67.728 25.74C68.1333 25.74 68.5013 25.6653 68.832 25.516C69.1627 25.356 69.52 25.132 69.904 24.844L71.072 26.348C70.656 26.764 70.1493 27.1053 69.552 27.372C68.9653 27.6387 68.3147 27.772 67.6 27.772C66.576 27.772 65.6853 27.548 64.928 27.1C64.1707 26.652 63.5787 25.9907 63.152 25.116C62.736 24.2307 62.528 23.1693 62.528 21.932C62.528 20.7267 62.7413 19.6867 63.168 18.812C63.6053 17.9373 64.2027 17.276 64.96 16.828C65.728 16.3693 66.5973 16.14 67.568 16.14ZM76.4106 16.14C77.9893 16.14 79.216 16.6467 80.0906 17.66C80.976 18.6733 81.4186 20.1027 81.4186 21.948C81.4186 23.1533 81.216 24.1933 80.8106 25.068C80.416 25.9427 79.84 26.6147 79.0826 27.084C78.336 27.5427 77.4453 27.772 76.4106 27.772C75.376 27.772 74.4853 27.5427 73.7386 27.084C72.992 26.6253 72.416 25.964 72.0106 25.1C71.616 24.2253 71.4186 23.1747 71.4186 21.948C71.4186 20.7533 71.616 19.7187 72.0106 18.844C72.416 17.9693 72.992 17.3027 73.7386 16.844C74.4853 16.3747 75.376 16.14 76.4106 16.14ZM76.4106 18.06C75.6533 18.06 75.088 18.3693 74.7146 18.988C74.352 19.596 74.1706 20.5827 74.1706 21.948C74.1706 23.3133 74.3573 24.3053 74.7306 24.924C75.104 25.5427 75.664 25.852 76.4106 25.852C77.1786 25.852 77.744 25.548 78.1066 24.94C78.48 24.3213 78.6666 23.324 78.6666 21.948C78.6666 20.572 78.48 19.58 78.1066 18.972C77.7333 18.364 77.168 18.06 76.4106 18.06ZM87.4731 16.14C89.0518 16.14 90.2785 16.6467 91.1531 17.66C92.0385 18.6733 92.4811 20.1027 92.4811 21.948C92.4811 23.1533 92.2785 24.1933 91.8731 25.068C91.4785 25.9427 90.9025 26.6147 90.1451 27.084C89.3985 27.5427 88.5078 27.772 87.4731 27.772C86.4385 27.772 85.5478 27.5427 84.8011 27.084C84.0545 26.6253 83.4785 25.964 83.0731 25.1C82.6785 24.2253 82.4811 23.1747 82.4811 21.948C82.4811 20.7533 82.6785 19.7187 83.0731 18.844C83.4785 17.9693 84.0545 17.3027 84.8011 16.844C85.5478 16.3747 86.4385 16.14 87.4731 16.14ZM87.4731 18.06C86.7158 18.06 86.1505 18.3693 85.7771 18.988C85.4145 19.596 85.2331 20.5827 85.2331 21.948C85.2331 23.3133 85.4198 24.3053 85.7931 24.924C86.1665 25.5427 86.7265 25.852 87.4731 25.852C88.2411 25.852 88.8065 25.548 89.1691 24.94C89.5425 24.3213 89.7291 23.324 89.7291 21.948C89.7291 20.572 89.5425 19.58 89.1691 18.972C88.7958 18.364 88.2305 18.06 87.4731 18.06ZM96.6796 16.412V25.42H101L100.728 27.5H94.0556V16.412H96.6796ZM111.96 21.628C112.696 21.7667 113.293 22.0387 113.752 22.444C114.221 22.8493 114.456 23.4573 114.456 24.268C114.456 25.452 114.029 26.2893 113.176 26.78C112.333 27.26 111.149 27.5 109.624 27.5H106.056V16.412H109.192C110.749 16.412 111.938 16.636 112.76 17.084C113.581 17.5213 113.992 18.2413 113.992 19.244C113.992 19.8947 113.794 20.4227 113.4 20.828C113.016 21.2227 112.536 21.4893 111.96 21.628ZM108.68 18.268V20.844H109.656C110.765 20.844 111.32 20.396 111.32 19.5C111.32 19.052 111.17 18.7373 110.872 18.556C110.573 18.364 110.098 18.268 109.448 18.268H108.68ZM109.64 25.596C110.333 25.596 110.856 25.4947 111.208 25.292C111.57 25.0787 111.752 24.6893 111.752 24.124C111.752 23.1 111.112 22.588 109.832 22.588H108.68V25.596H109.64ZM121.693 27.5L121.117 25.116H117.885L117.325 27.5H114.604L117.949 16.412H121.133L124.477 27.5H121.693ZM118.333 23.212H120.669L119.501 18.316L118.333 23.212ZM128.938 23.26H127.914V27.5H125.29V16.412H128.922C130.437 16.412 131.573 16.6893 132.33 17.244C133.098 17.7987 133.482 18.6467 133.482 19.788C133.482 20.5027 133.311 21.1 132.97 21.58C132.629 22.0493 132.09 22.4493 131.354 22.78L134.17 27.5H131.21L128.938 23.26ZM127.914 21.452H129.018C129.605 21.452 130.042 21.3187 130.33 21.052C130.629 20.7853 130.778 20.364 130.778 19.788C130.778 19.2547 130.618 18.8653 130.298 18.62C129.989 18.3747 129.509 18.252 128.858 18.252H127.914V21.452ZM141.069 21.628C141.805 21.7667 142.402 22.0387 142.861 22.444C143.33 22.8493 143.565 23.4573 143.565 24.268C143.565 25.452 143.138 26.2893 142.285 26.78C141.442 27.26 140.258 27.5 138.733 27.5H135.165V16.412H138.301C139.858 16.412 141.048 16.636 141.869 17.084C142.69 17.5213 143.101 18.2413 143.101 19.244C143.101 19.8947 142.904 20.4227 142.509 20.828C142.125 21.2227 141.645 21.4893 141.069 21.628ZM137.789 18.268V20.844H138.765C139.874 20.844 140.429 20.396 140.429 19.5C140.429 19.052 140.28 18.7373 139.981 18.556C139.682 18.364 139.208 18.268 138.557 18.268H137.789ZM138.749 25.596C139.442 25.596 139.965 25.4947 140.317 25.292C140.68 25.0787 140.861 24.6893 140.861 24.124C140.861 23.1 140.221 22.588 138.941 22.588H137.789V25.596H138.749ZM151.84 16.412L151.568 18.284H147.664V20.94H151.072V22.78H147.664V25.612H151.84V27.5H145.04V16.412H151.84ZM157.11 23.26H156.086V27.5H153.462V16.412H157.094C158.609 16.412 159.745 16.6893 160.502 17.244C161.27 17.7987 161.654 18.6467 161.654 19.788C161.654 20.5027 161.483 21.1 161.142 21.58C160.801 22.0493 160.262 22.4493 159.526 22.78L162.342 27.5H159.382L157.11 23.26ZM156.086 21.452H157.19C157.777 21.452 158.214 21.3187 158.502 21.052C158.801 20.7853 158.95 20.364 158.95 19.788C158.95 19.2547 158.79 18.8653 158.47 18.62C158.161 18.3747 157.681 18.252 157.03 18.252H156.086V21.452Z" fill="#EFE7E2"/>
</svg>

<svg width="199" height="45" fill="none" xmlns="http://www.w3.org/2000/svg"><path d="M38.187 7.314c-8.837 0-16 7.163-16 16 8.836 0 16-7.164 16-16z" fill="#FF6E40"/><path d="M38.187 37.316c-8.837 0-16-7.164-16-16 8.836 0 16 7.163 16 16zm-16.001-14c-8.836 0-16-7.164-16-16 8.837 0 16 7.163 16 16z" fill="#FF6E40"/><path d="M22.186 21.314c-8.836 0-16 7.163-16 16 8.837 0 16-7.164 16-16z" fill="#FF6E40"/><path d="M43.813 22.629c-6.249-6.248-16.38-6.248-22.628 0 6.249 6.248 16.38 6.248 22.628 0z" fill="#FF6E40"/><path d="M43.813 22.629c-6.249-6.248-16.38-6.248-22.628 0 6.249 6.248 16.38 6.248 22.628 0z" fill="#FF6E40"/><path d="M23.814 22.63c-6.248-6.25-16.38-6.25-22.627 0 6.248 6.248 16.379 6.248 22.627 0z" fill="#FF6E40"/><path d="M22.5 22.627C16.252 16.38 16.252 6.248 22.5 0c6.249 6.248 6.249 16.379 0 22.627z" fill="#FF6E40"/><path d="M22.5 22.002c-6.248 6.248-6.248 16.379 0 22.627 6.249-6.248 6.249-16.379 0-22.627z" fill="#FF6E40"/><path d="M67.568 16.14c.693 0 1.307.101 1.84.304a5.178 5.178 0 011.536.912l-1.248 1.488a4.095 4.095 0 00-.976-.576 2.731 2.731 0 00-1.024-.192c-.747 0-1.339.315-1.776.944-.427.63-.64 1.6-.64 2.912 0 1.29.213 2.25.64 2.88.437.619 1.04.928 1.808.928a2.66 2.66 0 001.104-.224c.33-.16.688-.384 1.072-.672l1.168 1.504a5.012 5.012 0 01-1.52 1.024c-.587.267-1.237.4-1.952.4-1.024 0-1.915-.224-2.672-.672-.757-.448-1.35-1.11-1.776-1.984-.416-.885-.624-1.947-.624-3.184 0-1.205.213-2.245.64-3.12.437-.875 1.035-1.536 1.792-1.984.768-.459 1.637-.688 2.608-.688zm8.843 0c1.578 0 2.805.507 3.68 1.52.885 1.013 1.328 2.443 1.328 4.288 0 1.205-.203 2.245-.608 3.12-.395.875-.971 1.547-1.728 2.016-.747.459-1.638.688-2.672.688-1.035 0-1.926-.23-2.672-.688-.747-.459-1.323-1.12-1.728-1.984-.395-.875-.592-1.925-.592-3.152 0-1.195.197-2.23.592-3.104.405-.875.981-1.541 1.728-2 .746-.47 1.637-.704 2.672-.704zm0 1.92c-.758 0-1.323.31-1.696.928-.363.608-.544 1.595-.544 2.96s.186 2.357.56 2.976c.373.619.933.928 1.68.928.768 0 1.333-.304 1.696-.912.373-.619.56-1.616.56-2.992s-.187-2.368-.56-2.976c-.374-.608-.939-.912-1.696-.912zm11.062-1.92c1.579 0 2.805.507 3.68 1.52.885 1.013 1.328 2.443 1.328 4.288 0 1.205-.203 2.245-.608 3.12-.395.875-.97 1.547-1.728 2.016-.746.459-1.637.688-2.672.688-1.034 0-1.925-.23-2.672-.688-.746-.459-1.323-1.12-1.728-1.984-.394-.875-.592-1.925-.592-3.152 0-1.195.198-2.23.592-3.104.406-.875.982-1.541 1.728-2 .747-.47 1.638-.704 2.672-.704zm0 1.92c-.757 0-1.323.31-1.696.928-.362.608-.544 1.595-.544 2.96s.187 2.357.56 2.976c.373.619.933.928 1.68.928.768 0 1.334-.304 1.696-.912.374-.619.56-1.616.56-2.992s-.186-2.368-.56-2.976c-.373-.608-.938-.912-1.696-.912zm9.207-1.648v9.008H101l-.272 2.08h-6.672V16.412h2.624zm15.28 5.216c.736.139 1.333.41 1.792.816.469.405.704 1.013.704 1.824 0 1.184-.427 2.021-1.28 2.512-.843.48-2.027.72-3.552.72h-3.568V16.412h3.136c1.557 0 2.746.224 3.568.672.821.437 1.232 1.157 1.232 2.16 0 .65-.198 1.179-.592 1.584a2.912 2.912 0 01-1.44.8zm-3.28-3.36v2.576h.976c1.109 0 1.664-.448 1.664-1.344 0-.448-.15-.763-.448-.944-.299-.192-.774-.288-1.424-.288h-.768zm.96 7.328c.693 0 1.216-.101 1.568-.304.362-.213.544-.603.544-1.168 0-1.024-.64-1.536-1.92-1.536h-1.152v3.008h.96zm12.053 1.904l-.576-2.384h-3.232l-.56 2.384h-2.721l3.345-11.088h3.184l3.344 11.088h-2.784zm-3.36-4.288h2.336l-1.168-4.896-1.168 4.896zm10.605.048h-1.024v4.24h-2.624V16.412h3.632c1.515 0 2.651.277 3.408.832.768.555 1.152 1.403 1.152 2.544 0 .715-.171 1.312-.512 1.792-.341.47-.88.87-1.616 1.2l2.816 4.72h-2.96l-2.272-4.24zm-1.024-1.808h1.104c.587 0 1.024-.133 1.312-.4.299-.267.448-.688.448-1.264 0-.533-.16-.923-.48-1.168-.309-.245-.789-.368-1.44-.368h-.944v3.2zm13.155.176c.736.139 1.333.41 1.792.816.469.405.704 1.013.704 1.824 0 1.184-.427 2.021-1.28 2.512-.843.48-2.027.72-3.552.72h-3.568V16.412h3.136c1.557 0 2.747.224 3.568.672.821.437 1.232 1.157 1.232 2.16 0 .65-.197 1.179-.592 1.584a2.912 2.912 0 01-1.44.8zm-3.28-3.36v2.576h.976c1.109 0 1.664-.448 1.664-1.344 0-.448-.149-.763-.448-.944-.299-.192-.773-.288-1.424-.288h-.768zm.96 7.328c.693 0 1.216-.101 1.568-.304.363-.213.544-.603.544-1.168 0-1.024-.64-1.536-1.92-1.536h-1.152v3.008h.96zm13.091-9.184l-.272 1.872h-3.904v2.656h3.408v1.84h-3.408v2.832h4.176V27.5h-6.8V16.412h6.8zm5.27 6.848h-1.024v4.24h-2.624V16.412h3.632c1.515 0 2.651.277 3.408.832.768.555 1.152 1.403 1.152 2.544 0 .715-.171 1.312-.512 1.792-.341.47-.88.87-1.616 1.2l2.816 4.72h-2.96l-2.272-4.24zm-1.024-1.808h1.104c.587 0 1.024-.133 1.312-.4.299-.267.448-.688.448-1.264 0-.533-.16-.923-.48-1.168-.309-.245-.789-.368-1.44-.368h-.944v3.2z" fill="#EFE7E2"/></svg>
